icons/copilot-96.svg

<svg xmlns="http://www.w3.org/2000/svg" width="96" height="96" viewBox="0 0 96 96"><path d="M38 54a4 4 0 014 4v8a4 4 0 01-8 0v-8a4 4 0 014-4zm24 4a4 4 0 00-8 0v8a4 4 0 108 0v-8z"/><path d="M25.013 15.024C31.008 10.628 39.145 8 48 8c8.855 0 16.992 2.628 22.987 7.024 3.64 2.67 6.553 6.05 8.278 9.92 1.615 2.744 2.114 5.94 1.968 9.397l3.898 9.026.355.07a10.996 10.996 0 016.794 4.394l2.416 3.382A7 7 0 0196 55.282V65c0 2.116-1.238 3.947-2.258 5.17-1.122 1.347-2.547 2.616-3.868 3.673a52.899 52.899 0 01-3.647 2.653c-.51.34-1.025.671-1.546.993l-.061.037-.036.022-.002.001-.024.015-.158.099c-.134.083-.327.201-.576.348-.704.415-1.417.815-2.139 1.199a76.495 76.495 0 01-7.768 3.58C67.381 85.377 58.245 88 48 88c-10.245 0-19.381-2.622-25.917-5.21a76.495 76.495 0 01-7.768-3.58 55.966 55.966 0 01-2.14-1.199 34.102 34.102 0 01-.733-.447l-.024-.015-.002-.001-.038-.023-.059-.036-.345-.215a54.57 54.57 0 01-1.2-.778 52.918 52.918 0 01-3.648-2.653c-1.321-1.057-2.746-2.326-3.868-3.672C1.238 68.946 0 67.116 0 65v-9.718a7 7 0 011.304-4.069l2.416-3.382a10.998 10.998 0 016.794-4.393l.355-.071 3.898-9.026c-.146-3.457.353-6.654 1.968-9.398 1.725-3.87 4.637-7.249 8.278-9.919zM16 46.62v26.671c.326.184.706.394 1.138.624a70.399 70.399 0 007.154 3.295C30.381 79.622 38.745 82 48 82c9.255 0 17.618-2.378 23.708-4.789a70.406 70.406 0 007.154-3.296c.432-.23.812-.44 1.138-.624V46.62l-.983-2.275a11.56 11.56 0 01-2.281 3.065c-3.167 3.016-7.836 3.88-13.914 3.348-5.658-.495-9.622-2.8-12.098-6.457a13.9 13.9 0 01-.213-.324c-1.674.031-3.348.031-5.022 0-.07.109-.141.217-.213.324-2.476 3.657-6.44 5.962-12.098 6.457-6.077.532-10.747-.332-13.914-3.348a11.586 11.586 0 01-2.282-3.065zm24.307-5.683c1.427-2.108 2.097-5.107 2.247-8.826.185-4.606-.683-7.105-1.965-8.337-1.187-1.139-3.597-1.991-8.71-.981-5.191 1.025-7.925 2.568-9.368 4.328-1.388 1.692-2.022 4.13-1.677 8.076.199 2.276.53 4.003 1.007 5.316.358.985.799 1.738 1.328 2.315.075.082.153.161.233.237 1.21 1.153 3.471 2.073 8.261 1.789.32-.019.65-.043.992-.073 1.952-.171 3.472-.603 4.67-1.216a7.8 7.8 0 002.982-2.628zm15.386 0a7.8 7.8 0 002.982 2.628c1.198.613 2.718 1.045 4.67 1.216 5.475.479 7.962-.486 9.253-1.716.634-.604 1.151-1.425 1.56-2.551.478-1.314.808-3.04 1.008-5.317.345-3.946-.289-6.384-1.677-8.076-1.443-1.76-4.177-3.303-9.368-4.328-5.113-1.01-7.523-.158-8.71.981-1.282 1.232-2.15 3.731-1.965 8.337.15 3.719.82 6.718 2.247 8.826zm-9.27-5.997a6.498 6.498 0 013.154 0l.06.015a1.498 1.498 0 001.463-.399 1.498 1.498 0 00-.736-2.511l-.06-.015a9.504 9.504 0 00-4.608 0l-.06.015a1.498 1.498 0 00-.73 2.508 1.5 1.5 0 001.458.402l.06-.015z"/></svg>

<svg xmlns="http://www.w3.org/2000/svg" width="96" height="96" viewBox="0 0 96 96">
  <defs/>
  <path d="M38,54 A4 4 0 0 1 42,58 L42,66 A4 4 0 0 1 34,66 L34,58 A4 4 0 0 1 38,54 Z M62,58 A4 4 0 0 0 54,58 L54,66 A4 4 0 1 0 62,66 L62,58 Z"/>
  <path d="M25.013,15.024 C31.008,10.628 39.145,8 48,8 C56.855,8 64.992,10.628 70.987,15.024 C74.627,17.694 77.54,21.074 79.265,24.944 C80.88,27.688 81.379,30.884 81.233,34.341 L85.131,43.367 L85.486,43.437 C88.227,43.985 90.656,45.556 92.28,47.831 L94.696,51.213 C95.544,52.4 96,53.823 96,55.282 L96,65 C96,67.116 94.762,68.947 93.742,70.17 C92.62,71.517 91.195,72.786 89.874,73.843 C88.696,74.779 87.48,75.664 86.227,76.496 C85.717,76.836 85.202,77.167 84.681,77.489 L84.62,77.526 L84.584,77.548 L84.582,77.549 L84.558,77.564 L84.4,77.663 C84.266,77.746 84.073,77.864 83.824,78.011 C83.12,78.426 82.407,78.826 81.685,79.21 C79.164,80.547 76.571,81.743 73.917,82.79 C67.381,85.377 58.245,88 48,88 C37.755,88 28.619,85.378 22.083,82.79 C19.429,81.743 16.836,80.547 14.315,79.21 C13.593,78.826 12.879,78.426 12.175,78.011 C11.929,77.865 11.684,77.716 11.442,77.564 L11.418,77.549 L11.416,77.548 L11.378,77.525 L11.319,77.489 L10.974,77.274 C10.571,77.02 10.171,76.761 9.774,76.496 C8.521,75.664 7.304,74.779 6.126,73.843 C4.805,72.786 3.38,71.517 2.258,70.171 C1.238,68.946 0,67.116 0,65 L0,55.282 C0,53.823 0.456,52.4 1.304,51.213 L3.72,47.831 C5.344,45.557 7.773,43.986 10.514,43.438 L10.869,43.367 L14.767,34.341 C14.621,30.884 15.12,27.687 16.735,24.943 C18.46,21.073 21.372,17.694 25.013,15.024 Z M16,46.62 L16,73.291 C16.326,73.475 16.706,73.685 17.138,73.915 C19.459,75.146 21.848,76.246 24.292,77.21 C30.381,79.622 38.745,82 48,82 C57.255,82 65.618,79.622 71.708,77.211 C74.152,76.247 76.541,75.146 78.862,73.915 C79.294,73.685 79.674,73.475 80,73.291 L80,46.62 L79.017,44.345 C78.432,45.486 77.661,46.522 76.736,47.41 C73.569,50.426 68.9,51.29 62.822,50.758 C57.164,50.263 53.2,47.958 50.724,44.301 C50.651,44.194 50.581,44.086 50.511,43.977 C48.837,44.008 47.163,44.008 45.489,43.977 C45.419,44.086 45.348,44.194 45.276,44.301 C42.8,47.958 38.836,50.263 33.178,50.758 C27.101,51.29 22.431,50.426 19.264,47.41 C18.339,46.522 17.568,45.486 16.982,44.345 Z M40.307,40.937 C41.734,38.829 42.404,35.83 42.554,32.111 C42.739,27.505 41.871,25.006 40.589,23.774 C39.402,22.635 36.992,21.783 31.879,22.793 C26.688,23.818 23.954,25.361 22.511,27.121 C21.123,28.813 20.489,31.251 20.834,35.197 C21.033,37.473 21.364,39.2 21.841,40.513 C22.199,41.498 22.64,42.251 23.169,42.828 C23.244,42.91 23.322,42.989 23.402,43.065 C24.612,44.218 26.873,45.138 31.663,44.854 C31.983,44.835 32.313,44.811 32.655,44.781 C34.607,44.61 36.127,44.178 37.325,43.565 C38.529,42.961 39.557,42.056 40.307,40.937 Z M55.693,40.937 C56.443,42.056 57.471,42.961 58.675,43.565 C59.873,44.178 61.393,44.61 63.345,44.781 C68.82,45.26 71.307,44.295 72.598,43.065 C73.232,42.461 73.749,41.64 74.158,40.514 C74.636,39.2 74.966,37.474 75.166,35.197 C75.511,31.251 74.877,28.813 73.489,27.121 C72.046,25.361 69.312,23.818 64.121,22.793 C59.008,21.783 56.598,22.635 55.411,23.774 C54.129,25.006 53.261,27.505 53.446,32.111 C53.596,35.83 54.266,38.829 55.693,40.937 Z M46.423,34.94 C47.458,34.681 48.542,34.681 49.577,34.94 L49.637,34.955 C50.161,35.097 50.721,34.944 51.1,34.556 C51.48,34.169 51.621,33.606 51.468,33.085 C51.315,32.564 50.893,32.166 50.364,32.045 L50.304,32.03 C48.791,31.652 47.209,31.652 45.696,32.03 L45.636,32.045 C45.109,32.169 44.69,32.566 44.539,33.086 C44.387,33.606 44.528,34.166 44.906,34.553 C45.284,34.94 45.841,35.094 46.364,34.955 L46.424,34.94 Z"/>
</svg>
